X:1
T:Tutta gentile
T:Giovanni Maria Nanino
T:Source : Canzonette a la Romana a tre voce---Venetia---Ang.Gardano---1601. Editor : André Vierendeels (24/01/17).
T:Notes : original clefs : G2, C1, F4
T:Tutta gentile
T:©
T:©
C:Giovanni Maria Nanino
Z:©
%%score [ 1 2 3 ]
L:1/8
Q:1/4=103
M:4/4
K:F
V:1 treble nm="Soprano 1" snm="S 1"
V:2 treble nm="Soprano 2" snm="S 2"
V:3 treble-8 nm="Tenor" snm="T"
V:1
"^1)" c4 c2 c2 | d2 e2 f4 | f4 z2 f2 | e2 d2 c2 f2 | e2 d2 z2 d2 | c2 B2 A2 d2 | c2 B4 A2 | %7
w: Tut- ta gen-|ti- l'e bel-|la a|tes- ser ghir- lan-|det- te, a|tes- ser ghir- lan-|det- * *|
w: L'au- ra so-|a- ve'in- tor-|no di|lei pren- dee di-|let- to, men-|tre va- rio la-|vo- * *|
[M:2/4] B4 ::[M:4/4] f4 d2 f2 | e2 f2 d4 | c2 c2 c2 d2 | c3 B A2 B2 | c4 d4 | c3 B/A/ G2 F2 | %14
w: te,|Clo- ri sen|sta- va'un gior-|no in un bel|pra- to di fio-|ret- ti'a-|dor- * * * *|
w: ro,|Tes- sea, in-|vol- gen- do|le sue chio- me|d'o- * * ro,|[le sue|chio- * * * me|
 G4 !fermata!F4 :| %15
w: * no.|
w: d'o- ro].|
V:2
"^2)""^1)" A4 A2 A2 | G2 G2 A4 | A4 z4 | z2 F2 E2 D2 | C2 F2 E2 D2 | z2 d2 c2 B2 | A2 d2 c4 | %7
w: Tut- ta gen-|ti- l'e bel-|la|a tes- ser|ghir- lan- det- te,|a tes- ser|ghir- lan- det-|
w: Gli'a- mo- so-|set- te'au- gel-|li|den- tro l'om-|bro- se fron- di,|can- tan- do|dol- ce- men-|
[M:2/4] B4 ::[M:4/4] f4 d2 f2 | e2 A2 B4 | A2 A2 A2 B2 | A3 B c2 B2 | A3 G FEFG | A3 G/F/ E2 F2- | %14
w: te,|Clo- ri sen|sta- va'un gior-|no in un bel|pra- to di fio-|ret- * * * * *|* * * ti'a- dor-|
w: te,|po- te- an|far liet- ta'o-|gni'af- fan- na- ta-|men- * * te,|[af- fa- na- * * *|* * * ta- men-|
 F2 E2 !fermata!F4 :| %15
w: * * no.|
w: * * te].|
V:3
"^3)""^1)""^4)" F4 F2 A2 | =B2 c2 F4 | F2 f2 e2 d2 | ^c2 d2 A4 | A2 d2 c2 B2 | A2 B2 F4- | F8 | %7
w: Tut- ta gen-|ti- l'e bel-|la, a tes- ser|ghir- lan- det-|te, a tes- ser|ghir- lan det-||
w: Io so- li(ahi|ca- so stra-|no) nel ri- mi-|rar quel vi-|so, nel ri- mi-|rar quel vi-||
[M:2/4] B4 ::[M:4/4] B4 B2 B2 | c2 d2 B4 | F4 z4 | z2 f2 f2 g2 | f3 e d2 B2 | FGAB c2 d2 | %14
w: te;|Clo- ri sen|sta- va'un gior-|no|in un bel|pra- to di fio-|ret- * * * ti'a- dor-|
w: so,|ch'al mon- do|dà con- for-|to|re- stai di|for- ze pri- vo,|e _ _ _ qua- si|
 c4 !fermata!F4 :| %15
w: * no.|
w: mor- to.|

